icons/svg/shuffle-disabled.svg

﻿<?xml version="1.0" encoding="utf-8"?>
<!DOCTYPE svg PUBLIC "-//W3C//DTD SVG 1.1//EN" "http://www.w3.org/Graphics/SVG/1.1/DTD/svg11.dtd">
<svg xmlns="http://www.w3.org/2000/svg" xmlns:xlink="http://www.w3.org/1999/xlink" version="1.1" baseProfile="full" width="24" height="24" viewBox="0 0 24.00 24.00" enable-background="new 0 0 24.00 24.00" xml:space="preserve">
	<path fill="#000000" fill-opacity="1" stroke-width="0.2" stroke-linejoin="round" d="M 16.0012,4.5025L 16.0012,6.9925L 5,7.00625L 5,8.99875L 16.0012,8.99875L 16.0012,11.4987L 19.5025,7.9975M 16.0012,12.5L 16.0012,14.99L 5,15.005L 5,17.0025L 16.0012,17.0025L 16.0012,19.5025L 19.5025,16.0012"/>
</svg>

<svg xmlns="http://www.w3.org/2000/svg" version="1.1" baseProfile="full" width="24" height="24" viewBox="0 0 24.00 24.00" xml:space="preserve"><path fill="#000" fill-opacity="1" stroke-width=".2" stroke-linejoin="round" d="M16 4.503v2.49L5 7.005V9h11v2.5l3.503-3.503M16 12.5v2.49l-11 .015v1.998h11v2.5L19.504 16"/></svg>
